X: 26451
T: Metcalfe Fair
R: reel
M: 4/4
K: Dmajor
ag|f2 df e/f/e ce|dF Ad fgaf|b2 gb a2 fa|gfef gbag|
f2 df fece|dF Ad fgaf|gfeg fedf|edce deag|
f2 df e/f/e ce|dF Ad fgaf|bgdb afdf|(3gag (3fgf eAag|
f2 df e/f/e ce|dF Ad fgaf|gfeg fedf|(3fga ec dA=cd||
K:G
|:B3 c BGDB,|G,B,DG BDGB|cGEc dGBd|
bagb afdc|Bdgd ecea|fdbg ecAF|
[1 GBd^d efge|dBAF GDB,D:|2 GBd^d efgb|afdf g^gag||

